; generated by PrusaSlicer 2.7.0+win64 on 2023-12-10 at 13:36:37 UTC


;
;
; 

; external perimeters extrusion width = 0.60mm
; perimeters extrusion width = 0.50mm
; infill extrusion width = 0.50mm
; solid infill extrusion width = 0.50mm
; top infill extrusion width = 0.45mm
; first layer extrusion width = 0.42mm

M73 P0 R72
M73 Q0 S73
M201 X1000 Y1000 Z200 E5000 ; sets maximum accelerations, mm/sec^2
M203 X200 Y200 Z12 E120 ; sets maximum feedrates, mm / sec
M204 S1250 T1250 ; sets acceleration (S) and retract acceleration (R), mm/sec^2
M205 X8.00 Y8.00 Z0.40 E4.50 ; sets the jerk limits, mm/sec
M205 S0 T0 ; sets the minimum extruding and travel feed rate, mm/sec

; printing object MountMini12864-Part_MountMini12864Body_MountMini12864.stl id:0 copy 0
; stop printing object MountMini12864-Part_MountMini12864Body_MountMini12864.stl id:0 copy 0

;TYPE:Custom
M862.3 P "MK3S" ; printer model check
M862.1 P0.4 ; nozzle diameter check
M115 U3.12.2 ; tell printer latest fw version
G90 ; use absolute coordinates
M83 ; extruder relative mode
M104 S215 ; set extruder temp
M140 S60 ; set bed temp
M190 S60 ; wait for bed temp
M109 S215 ; wait for extruder temp
G28 W ; home all without mesh bed level
G80 ; mesh bed leveling

G1 Z0.2 F720
G1 Y-3 F1000 ; go outside print area
G92 E0
G1 X60 E9 F1000 ; intro line
G1 X100 E12.5 F1000 ; intro line

G92 E0
M221 S95

; Don't change E values below. Excessive value can damage the printer.

M907 E538 ; set extruder motor current
G21 ; set units to millimeters
G90 ; use absolute coordinates
M83 ; use relative distances for extrusion
M900 K0.05 ; Filament gcode LA 1.5
M900 K30 ; Filament gcode LA 1.0
M107
;LAYER_CHANGE
;Z:0.2
;HEIGHT:0.2
;BEFORE_LAYER_CHANGE
G92 E0.0
;0.2


G1 E-.8 F2100
G1 Z.2 F720
;AFTER_LAYER_CHANGE
;0.2
G1 X44.913 Y44.913 F10800
G1 Z.2 F720
G1 E.8 F2100
M204 S800
;TYPE:Skirt/Brim
;WIDTH:0.42
G1 F1200
G1 X46.407 Y43.419 E.06625
G1 X48.088 Y42.723 E.05705
G1 X201.912 Y42.723 E4.82304
G1 X203.593 Y43.419 E.05705
G1 X206.581 Y46.407 E.13249
G1 X207.277 Y48.088 E.05705
G1 X207.261 Y150.727 E3.21817
G1 X207.099 Y152.473 E.05498
G1 X206.729 Y154.315 E.05891
G1 X206.007 Y156.5 E.07215
G1 X205.266 Y158.089 E.05497
G1 X204.331 Y159.651 E.05708
G1 X203.278 Y161.053 E.05498
G1 X201.692 Y162.72 E.07214
G1 X200.342 Y163.84 E.055
G1 X198.089 Y165.266 E.0836
G1 X195.706 Y166.307 E.08154
G1 X193.252 Y166.968 E.07969
G1 X191.756 Y167.188 E.04741
G1 X190.15 Y167.276 E.05043
G1 X59.85 Y167.276 E4.08547
G1 X57.585 Y167.107 E.07121
M73 Q0 S72
G1 X55.741 Y166.744 E.05893
G1 X54.066 Y166.226 E.05497
G1 X51.963 Y165.293 E.07214
G1 X50.349 Y164.331 E.05891
G1 X48.947 Y163.278 E.05498
G1 X47.28 Y161.692 E.07214
G1 X46.16 Y160.342 E.055
G1 X44.734 Y158.089 E.0836
G1 X43.712 Y155.762 E.07969
G1 X43.043 Y153.309 E.07972
G1 X42.739 Y150.727 E.08152
G1 X42.723 Y48.088 E3.21817
G1 X43.419 Y46.407 E.05705
G1 X44.87 Y44.955 E.06436
M204 S1000
;WIPE_START
G1 F8640
G1 X44.913 Y44.913 E-.01388
G1 X46.407 Y43.419 E-.48786
G1 X47.6 Y42.925 E-.29826
;WIPE_END
G1 Z.6 F720
G1 X46.735 Y46.889 F10800
G1 Z.2 F720
G1 E.8 F2100
M204 S800
G1 F1200
G1 X47.322 Y46.323 E.02557
G1 X48.466 Y45.702 E.04081
G1 X49.782 Y45.387 E.04243
G1 X200.189 Y45.39 E4.71591
G1 X201.209 Y45.584 E.03255
G1 X202.188 Y46 E.03335
G1 X203.312 Y46.896 E.04507
G1 X204.205 Y48.234 E.05044
G1 X204.614 Y49.779 E.05011
G1 X204.602 Y150.594 E3.16098
G1 X204.454 Y152.154 E.04913
M73 P1 R72
M73 Q1 S72
G1 X204.141 Y153.687 E.04906
G1 X203.716 Y155.042 E.04453
G1 X202.912 Y156.845 E.0619
G1 X202.131 Y158.147 E.0476
G1 X201.217 Y159.367 E.0478
G1 X199.85 Y160.796 E.062
G1 X198.661 Y161.77 E.04819
G1 X197.553 Y162.51 E.04178
G1 X196.391 Y163.141 E.04146
G1 X194.384 Y163.939 E.06772
G1 X192.137 Y164.457 E.0723
G1 X190.054 Y164.613 E.06549
G1 X59.942 Y164.613 E4.07957
G1 X58.443 Y164.53 E.04707
M73 P1 R71
G1 X56.496 Y164.188 E.06198
G1 X54.961 Y163.717 E.05034
G1 X53.154 Y162.911 E.06204
G1 X51.779 Y162.082 E.05034
G1 X50.22 Y160.86 E.06211
G1 X49.175 Y159.817 E.04629
G1 X48.231 Y158.663 E.04675
G1 X47.039 Y156.748 E.07073
G1 X46.502 Y155.6 E.03974
G1 X46.063 Y154.392 E.0403
G1 X45.543 Y152.137 E.07256
G1 X45.387 Y150.054 E.06549
G1 X45.387 Y49.753 E3.14487
G1 X46.011 Y47.781 E.06485
G1 X46.509 Y47.107 E.02628
G1 X46.691 Y46.931 E.00794
M204 S1000
G1 X46.953 Y47.202 F10800
M204 S800
G1 F1200
G1 X47.565 Y46.612 E.02665
G1 X48.579 Y46.063 E.03615
G1 X49.805 Y45.764 E.03957
G1 X200.171 Y45.767 E4.71462
G1 X201.117 Y45.95 E.03021
G1 X202.015 Y46.336 E.03065
G1 X203.053 Y47.171 E.04177
G1 X203.849 Y48.362 E.04492
G1 X204.236 Y49.804 E.04681
G1 X204.224 Y150.585 E3.15992
G1 X204.082 Y152.088 E.04734
G1 X203.778 Y153.584 E.04786
G1 X203.365 Y154.906 E.04343
G1 X202.577 Y156.671 E.06061
G1 X201.813 Y157.945 E.04658
G1 X200.932 Y159.12 E.04605
G1 X199.594 Y160.519 E.0607
G1 X198.429 Y161.472 E.04719
G1 X197.351 Y162.191 E.04063
G1 X196.218 Y162.805 E.04041
G1 X194.264 Y163.582 E.06593
G1 X193.317 Y163.844 E.03081
G1 X192.072 Y164.085 E.03976
G1 X190.049 Y164.236 E.06361
G1 X59.947 Y164.236 E4.07926
G1 X58.49 Y164.156 E.04575
G1 X57.362 Y163.989 E.03575
G1 X55.097 Y163.366 E.07365
G1 X53.328 Y162.577 E.06073
G1 X51.996 Y161.773 E.04878
G1 X50.47 Y160.577 E.06079
G1 X49.448 Y159.557 E.04527
G1 X48.529 Y158.431 E.04557
G1 X47.378 Y156.582 E.06829
G1 X46.848 Y155.448 E.03925
G1 X46.156 Y153.317 E.07025
G1 X45.915 Y152.072 E.03976
G1 X45.764 Y150.049 E.06361
G1 X45.764 Y49.782 E3.1438
G1 X46.333 Y47.979 E.05928
M73 P2 R71
M73 Q2 S71
G1 X46.782 Y47.367 E.0238
G1 X46.91 Y47.244 E.00557
M204 S1000
G1 X47.171 Y47.516 F10800
M204 S800
G1 F1200
G1 X47.808 Y46.902 E.02774
G1 X48.693 Y46.423 E.03155
G1 X49.829 Y46.141 E.0367
G1 X200.152 Y46.144 E4.71327
G1 X201.024 Y46.316 E.02787
G1 X201.84 Y46.671 E.0279
G1 X202.793 Y47.445 E.03849
G1 X203.518 Y48.543 E.04125
G1 X203.859 Y49.829 E.04172
G1 X203.847 Y150.576 E3.15885
G1 X203.708 Y152.043 E.0462
G1 X203.415 Y153.481 E.04601
G1 X203.013 Y154.769 E.04231
G1 X202.242 Y156.497 E.05933
G1 X201.505 Y157.727 E.04496
G1 X200.646 Y158.873 E.04491
G1 X199.337 Y160.243 E.05941
G1 X198.198 Y161.175 E.04614
G1 X197.149 Y161.873 E.03951
G1 X196.045 Y162.47 E.03935
G1 X194.143 Y163.225 E.06416
G1 X192.008 Y163.713 E.06867
G1 X190.045 Y163.859 E.06172
G1 X59.952 Y163.859 E4.07897
G1 X58.537 Y163.782 E.04443
G1 X56.671 Y163.454 E.0594
G1 X55.233 Y163.014 E.04715
G1 X53.502 Y162.242 E.05943
G1 X52.213 Y161.465 E.04719
G1 X50.72 Y160.295 E.05947
G1 X49.722 Y159.297 E.04425
M73 P2 R70
G1 X48.827 Y158.2 E.04439
G1 X47.716 Y156.415 E.06592
G1 X47.199 Y155.312 E.03819
G1 X46.777 Y154.149 E.03879
G1 X46.287 Y152.007 E.0689
G1 X46.141 Y150.045 E.06169
G1 X46.141 Y49.811 E3.14277
G1 X46.656 Y48.176 E.05375
G1 X47.056 Y47.627 E.0213
G1 X47.128 Y47.557 E.00315
M204 S1000
G1 X47.39 Y47.829 F10800
M204 S800
G1 F1200
G1 X48.051 Y47.191 E.0288
G1 X48.809 Y46.782 E.02701
G1 X49.852 Y46.518 E.03373
G1 X200.133 Y46.521 E4.71196
G1 X200.929 Y46.681 E.02546
G1 X201.664 Y47.005 E.02519
G1 X202.53 Y47.717 E.03515
G1 X203.185 Y48.723 E.03764
G1 X203.482 Y49.853 E.03663
G1 X203.47 Y150.567 E3.15782
G1 X203.336 Y151.978 E.04444
G1 X203.052 Y153.378 E.04479
G1 X202.661 Y154.633 E.04122
G1 X201.908 Y156.323 E.05801
G1 X201.187 Y157.524 E.04392
G1 X200.361 Y158.627 E.04321
G1 X199.081 Y159.966 E.05808
G1 X197.966 Y160.877 E.04515
G1 X196.948 Y161.554 E.03833
G1 X195.873 Y162.135 E.03831
G1 X194.023 Y162.867 E.06238
G1 X193.159 Y163.106 E.02811
G1 X191.943 Y163.342 E.03884
G1 X190.04 Y163.482 E.05983
G1 X59.957 Y163.482 E4.07866
G1 X58.583 Y163.408 E.04314
M73 P3 R70
M73 Q3 S71
G1 X57.485 Y163.245 E.0348
G1 X55.369 Y162.662 E.06882
G1 X53.676 Y161.907 E.05812
G1 X52.431 Y161.157 E.04557
G1 X50.97 Y160.012 E.0582
G1 X49.995 Y159.037 E.04323
G1 X49.125 Y157.968 E.04322
G1 X48.054 Y156.249 E.0635
G1 X47.544 Y155.16 E.0377
G1 X46.894 Y153.159 E.06597
G1 X46.658 Y151.943 E.03884
G1 X46.518 Y150.04 E.05983
G1 X46.518 Y49.839 E3.14173
G1 X46.98 Y48.372 E.04822
G1 X47.33 Y47.886 E.01878
G1 X47.347 Y47.87 E.00073
M204 S1000
G1 X47.608 Y48.142 F10800
M204 S800
G1 F1200
G1 X48.294 Y47.481 E.02987
G1 X48.926 Y47.142 E.02249
G1 X49.877 Y46.895 E.03081
G1 X200.114 Y46.898 E4.71058
G1 X200.796 Y47.035 E.02181
M73 Q3 S70
G1 X201.487 Y47.339 E.02367
G1 X202.267 Y47.988 E.03181
G1 X202.829 Y48.85 E.03226
G1 X203.105 Y49.878 E.03337
G1 X203.093 Y150.558 E3.15675
G1 X202.962 Y151.932 E.04328
G1 X202.689 Y153.275 E.04297
G1 X202.31 Y154.497 E.04012
G1 X201.573 Y156.149 E.05672
G1 X200.879 Y157.306 E.0423
G1 X200.076 Y158.38 E.04205
G1 X198.825 Y159.689 E.05677
G1 X197.735 Y160.579 E.04412
G1 X196.747 Y161.235 E.03718
G1 X195.7 Y161.8 E.0373
G1 X193.902 Y162.51 E.06061
G1 X191.892 Y162.968 E.06464
G1 X190.036 Y163.105 E.05835
G1 X59.962 Y163.105 E4.07838
G1 X58.63 Y163.033 E.04182
G1 X56.846 Y162.72 E.05679
G1 X55.505 Y162.31 E.04397
G1 X53.85 Y161.573 E.0568
G1 X52.648 Y160.849 E.044
G1 X51.221 Y159.73 E.05686
G1 X50.269 Y158.778 E.04221
G1 X49.423 Y157.737 E.04206
G1 X48.393 Y156.082 E.06112
G1 X47.89 Y155.008 E.03718
G1 X47.491 Y153.906 E.03675
G1 X47.032 Y151.892 E.06477
G1 X46.895 Y150.036 E.05835
G1 X46.895 Y49.868 E3.1407
G1 X47.304 Y48.566 E.04279
G1 X47.573 Y48.19 E.0145
M204 S1000
G1 X47.879 Y48.406 F10800
M204 S800
G1 F1200
G1 X47.88 Y48.404 E.00007
G1 X48.537 Y47.771 E.02861
G1 X49.044 Y47.5 E.01803
G1 X49.902 Y47.272 E.02784
G1 X200.095 Y47.276 E4.7092
G1 X200.699 Y47.4 E.01933
M73 P4 R69
M73 Q4 S70
G1 X201.308 Y47.672 E.02091
G1 X202.001 Y48.257 E.02844
G1 X202.495 Y49.028 E.02871
G1 X202.728 Y49.902 E.02836
G1 X202.716 Y150.549 E3.15572
G1 X202.59 Y151.867 E.04151
G1 X202.326 Y153.172 E.04175
G1 X201.958 Y154.36 E.039
G1 X201.239 Y155.975 E.05543
G1 X200.571 Y157.088 E.0407
G1 X199.79 Y158.133 E.0409
G1 X198.569 Y159.412 E.05544
G1 X197.519 Y160.27 E.04252
G1 X196.545 Y160.916 E.03665
G1 X195.528 Y161.464 E.03622
G1 X194.786 Y161.793 E.02545
G1 X193 Y162.369 E.05884
G1 X191.841 Y162.594 E.03702
G1 X190.031 Y162.728 E.05691
G1 X59.967 Y162.728 E4.07807
G1 X58.676 Y162.659 E.04054
G1 X57.609 Y162.501 E.03382
G1 X55.641 Y161.958 E.06401
G1 X54.025 Y161.239 E.05546
G1 X52.865 Y160.54 E.04246
G1 X51.471 Y159.448 E.05552
G1 X50.555 Y158.532 E.04062
G1 X49.731 Y157.52 E.04092
G1 X48.731 Y155.916 E.05927
G1 X48.241 Y154.871 E.03619
G1 X47.631 Y153 E.0617
G1 X47.406 Y151.841 E.03702
G1 X47.272 Y150.031 E.05691
G1 X47.272 Y49.897 E3.13963
G1 X47.63 Y48.759 E.03741
G1 X47.844 Y48.455 E.01166
M204 S1000
G1 X48.152 Y48.735 F10800
M204 S800
G1 F1200
G1 X48.741 Y48.088 E.02743
G1 X49.166 Y47.858 E.01515
G1 X49.928 Y47.649 E.02477
G1 X200.074 Y47.653 E4.70772
G1 X200.599 Y47.764 E.01682
G1 X201.127 Y48.004 E.01819
G1 X201.734 Y48.525 E.02508
G1 X202.139 Y49.156 E.02351
G1 X202.351 Y49.928 E.0251
G1 X202.339 Y150.54 E3.15462
G1 X202.216 Y151.821 E.04035
M73 Q4 S69
G1 X201.963 Y153.07 E.03996
G1 X201.606 Y154.224 E.03787
G1 X200.904 Y155.801 E.05412
G1 X200.253 Y156.886 E.03967
G1 X199.505 Y157.887 E.03918
G1 X198.313 Y159.135 E.05411
G1 X197.302 Y159.961 E.04093
G1 X196.359 Y160.588 E.03551
G1 X195.355 Y161.129 E.03576
G1 X193.661 Y161.795 E.05707
G1 X191.79 Y162.221 E.06017
G1 X190.027 Y162.351 E.05543
G1 X59.972 Y162.351 E4.07778
G1 X58.723 Y162.285 E.03922
G1 X57.022 Y161.987 E.05415
G1 X55.777 Y161.606 E.04082
G1 X54.199 Y160.904 E.05415
G1 X53.083 Y160.232 E.04085
G1 X51.721 Y159.166 E.05423
G1 X50.829 Y158.272 E.0396
G1 X50.04 Y157.304 E.03916
G1 X49.069 Y155.749 E.05748
G1 X48.586 Y154.719 E.03567
G1 X48.206 Y153.664 E.03516
G1 X47.779 Y151.79 E.06026
G1 X47.649 Y150.027 E.05543
G1 X47.649 Y49.926 E3.1386
G1 X47.956 Y48.95 E.03208
M73 P5 R69
M73 Q5 S69
G1 X48.111 Y48.779 E.00724
M204 S1000
G1 X48.396 Y48.973 F10800
M204 S800
G1 F1200
G1 X48.437 Y48.914 E.00225
G1 X48.949 Y48.404 E.02266
G1 X49.291 Y48.214 E.01227
G1 X49.955 Y48.026 E.02164
G1 X200.053 Y48.03 E4.70622
G1 X200.497 Y48.127 E.01425
G1 X200.943 Y48.334 E.01542
G1 X201.466 Y48.791 E.02178
G1 X201.785 Y49.286 E.01846
G1 X201.974 Y49.955 E.0218
G1 X201.962 Y150.531 E3.15349
G1 X201.844 Y151.756 E.03859
M73 P5 R68
G1 X201.6 Y152.968 E.03876
G1 X201.254 Y154.088 E.03675
G1 X200.57 Y155.626 E.05278
G1 X199.945 Y156.668 E.0381
G1 X199.219 Y157.64 E.03804
G1 X198.057 Y158.858 E.05278
G1 X197.086 Y159.652 E.03933
G1 X196.158 Y160.269 E.03494
G1 X195.183 Y160.793 E.03471
G1 X194.519 Y161.088 E.02278
G1 X192.841 Y161.631 E.0553
G1 X191.738 Y161.847 E.03524
G1 X190.022 Y161.974 E.05395
G1 X59.977 Y161.974 E4.07747
G1 X58.769 Y161.91 E.03793
G1 X57.732 Y161.756 E.03287
G1 X55.912 Y161.254 E.0592
G1 X54.374 Y160.57 E.05278
G1 X53.3 Y159.924 E.0393
G1 X51.972 Y158.884 E.05289
G1 X51.115 Y158.027 E.038
G1 X50.349 Y157.087 E.03802
G1 X49.408 Y155.582 E.05565
G1 X48.938 Y154.583 E.03462
G1 X48.369 Y152.841 E.05746
G1 X48.153 Y151.738 E.03524
G1 X48.026 Y150.022 E.05395
G1 X48.026 Y49.955 E3.13753
G1 X48.283 Y49.139 E.02682
G1 X48.362 Y49.023 E.0044
M204 S1000
G1 X48.65 Y49.283 F10800
M204 S800
G1 F1200
G1 X49.16 Y48.718 E.02386
G1 X49.983 Y48.403 E.02763
G1 X200.031 Y48.407 E4.70465
G1 X200.756 Y48.662 E.0241
G1 X201.196 Y49.054 E.01848
G1 X201.431 Y49.42 E.01364
G1 X201.597 Y49.983 E.0184
G1 X201.585 Y150.522 E3.15233
G1 X201.47 Y151.71 E.03742
G1 X201.237 Y152.866 E.03697
G1 X200.902 Y153.952 E.03563
G1 X200.236 Y155.451 E.05143
G1 X199.637 Y156.45 E.03652
G1 X198.934 Y157.394 E.0369
G1 X197.801 Y158.581 E.05145
G1 X196.869 Y159.343 E.03775
G1 X195.971 Y159.941 E.03383
G1 X195.011 Y160.458 E.03419
G1 X193.42 Y161.08 E.05356
G1 X191.687 Y161.474 E.05572
G1 X190.018 Y161.597 E.05247
G1 X59.982 Y161.597 E4.07719
G1 X58.816 Y161.536 E.03661
M73 P6 R68
M73 Q6 S68
G1 X57.199 Y161.254 E.05147
G1 X56.048 Y160.903 E.03773
G1 X54.548 Y160.236 E.05147
G1 X53.518 Y159.616 E.03769
G1 X52.223 Y158.603 E.05155
G1 X51.389 Y157.767 E.03703
G1 X50.657 Y156.87 E.0363
G1 X49.746 Y155.415 E.05382
G1 X49.283 Y154.43 E.03413
G1 X48.92 Y153.421 E.03362
G1 X48.526 Y151.687 E.05575
G1 X48.403 Y150.018 E.05247
G1 X48.403 Y49.984 E3.1365
G1 X48.611 Y49.328 E.02158
M204 S1000
G1 X48.943 Y49.507 F10800
M204 S800
G1 F1200
G1 X49.375 Y49.028 E.02022
G1 X50.012 Y48.78 E.02143
G1 X200.009 Y48.784 E4.70305
G1 X200.568 Y48.991 E.01869
G1 X201.079 Y49.557 E.02391
G1 X201.22 Y50.013 E.01497
G1 X201.208 Y150.512 E3.15108
G1 X201.098 Y151.645 E.03569
G1 X200.874 Y152.765 E.03581
G1 X200.551 Y153.816 E.03447
G1 X199.902 Y155.277 E.05012
G1 X199.319 Y156.248 E.03551
G1 X198.648 Y157.147 E.03517
G1 X197.545 Y158.304 E.05012
G1 X196.652 Y159.035 E.03618
G1 X195.77 Y159.622 E.03322
G1 X194.839 Y160.122 E.03313
G1 X192.682 Y160.894 E.07183
G1 X191.635 Y161.1 E.03346
G1 X190.013 Y161.22 E.051
G1 X59.987 Y161.22 E4.07687
G1 X58.862 Y161.162 E.03532
M73 P6 R67
G1 X57.856 Y161.012 E.03189
G1 X56.184 Y160.551 E.05438
G1 X54.723 Y159.902 E.05012
G1 X53.735 Y159.307 E.03616
G1 X52.474 Y158.321 E.05019
G1 X51.675 Y157.521 E.03545
G1 X50.966 Y156.653 E.03514
G1 X50.084 Y155.248 E.05201
G1 X49.635 Y154.294 E.03306
G1 X49.106 Y152.682 E.0532
G1 X48.9 Y151.635 E.03346
G1 X48.78 Y150.013 E.051
G1 X48.78 Y50.013 E3.13543
G1 X48.924 Y49.564 E.01478
M204 S1000
G1 X49.282 Y49.69 F10800
M204 S800
G1 F1200
G1 X49.294 Y49.653 E.00122
G1 X49.597 Y49.334 E.01379
G1 X50.044 Y49.157 E.01507
G1 X199.987 Y49.161 E4.70136
G1 X200.378 Y49.318 E.01321
M73 P7 R67
G1 X200.647 Y49.573 E.01162
G1 X200.843 Y50.044 E.016
G1 X200.831 Y150.503 E3.14982
G1 X200.724 Y151.599 E.03453
M73 Q7 S68
G1 X200.51 Y152.663 E.03403
G1 X200.199 Y153.68 E.03334
G1 X199.568 Y155.101 E.04875
G1 X199.01 Y156.031 E.03401
G1 X198.363 Y156.901 E.03399
G1 X197.29 Y158.026 E.04875
G1 X196.435 Y158.726 E.03465
G1 X194.666 Y159.787 E.06468
G1 X193.179 Y160.366 E.05003
G1 X191.582 Y160.727 E.05134
G1 X190.009 Y160.843 E.04945
G1 X59.991 Y160.843 E4.07662
G1 X58.908 Y160.787 E.034
G1 X57.376 Y160.52 E.04876
G1 X56.32 Y160.199 E.03461
G1 X54.899 Y159.568 E.04875
G1 X53.952 Y158.999 E.03464
G1 X52.725 Y158.04 E.04883
G1 X51.961 Y157.275 E.0339
G1 X51.274 Y156.435 E.03402
G1 X50.422 Y155.081 E.05016
G1 X49.635 Y153.18 E.06451
